(Generated By: Line Grinder Version: 01.04)
(Home Page: http://www.OfItselfSo.com/LineGrinder/LineGrinder.php)
(Generated from file: D:\repo\WindTunnelApparatus\Hardware\I2C\I2C-F_Cu.gbr)
(Date Generated: Tuesday, 17 November 2015 18:21)

(The Line Grinder software is released under the MIT License. There)
(is no warranty or guarantee that the GCode files it produces)
(are without error. You use it, and run its output code entirely)
(at your own risk. In particular: )

(THE LINE GRINDER SOFTWARE, AND THE OUTPUT CODE IT GENERATES, ARE )
(PROVIDED "AS IS", WITHOUT WARRANTY OF ANY KIND, EXPRESS OR )
(IMPLIED, INCLUDING BUT NOT LIMITED TO THE WARRANTIES OF )
(MERCHANTABILITY, FITNESS FOR A PARTICULAR PURPOSE AND )
(NONINFRINGEMENT. IN NO EVENT SHALL THE AUTHORS OR COPYRIGHT )
(HOLDERS BE LIABLE FOR ANY CLAIM, DAMAGES OR OTHER LIABILITY, )
(WHETHER IN AN ACTION OF CONTRACT, TORT OR OTHERWISE, ARISING )
(FROM, OUT OF OR IN CONNECTION WITH THE SOFTWARE OR ITS OUTPUT)
(OR FROM THE USE OR OTHER DEALINGS IN THE SOFTWARE. )

G21 (Use MilliMeters)
G90 (Set Absolute Coordinates)
G17 (XY plane selection)
G00 Z6.35
G00 X0 Y0
M03 (Start spindle)
G04 P1 (Pause to let the spindle start)
G00 X138.779 Y-105.805
G01 Z-0.0508 F508
G01 X140.638 Y-105.805 F381
G01 X140.638 Y-105.792
G01 X142.113 Y-107.267
G01 Z2.54 F508
G00 X140.638 Y-104.356
G01 Z-0.0508
G01 X140.638 Y-103.549 F381
G01 X140.202 Y-103.549
G01 X140.202 Y-98.01
G01 X144.369 Y-93.844
G01 X145.908 Y-93.844
G01 X145.908 Y-91.587
G01 X143.651 Y-91.587
G01 X143.651 Y-93.126
G01 X139.343 Y-97.433
G01 Z2.54 F508
G00 X138.779 Y-103.549
G01 Z-0.0508
G01 X139.202 Y-103.549 F381
G01 X139.202 Y-97.792

G02 X139.3421 Y-97.4451 I0.5004 J-0.0003
G01 X139.343 Y-97.446
G01 Z2.54 F508
G00 X138.779 Y-105.805
G01 Z-0.0508
G01 X138.779 Y-103.549 F381
G01 Z2.54 F508
G00 X138.779 Y-109.805
G01 Z-0.0508
G01 X140.638 Y-109.805 F381
G01 X140.638 Y-108.446
G01 X142.984 Y-108.446
G01 X142.984 Y-108.6
G01 X143.6 Y-108.6

G03 X143.856 Y-108.6715 I0.2563 J0.423
G01 X143.856 Y-108.677
G01 X145.818 Y-108.677

G03 X146.1779 Y-108.5238 I-0.0002 J0.5
G01 X146.177 Y-108.523
G01 Z2.54 F508
G00 X138.779 Y-107.549
G01 Z-0.0508
G01 X140.138 Y-107.549 F381

G02 X140.433 Y-107.4513 I0.2952 J-0.3972
G01 X140.433 Y-107.446
G01 X143.625 Y-107.446

G02 X143.9853 Y-107.5987 I0.0005 J-0.5002
G01 X143.984 Y-107.6
G01 Z2.54 F508
G00 X138.779 Y-109.805
G01 Z-0.0508
G01 X138.779 Y-107.549 F381
G01 Z2.54 F508
G00 X142.984 Y-100.985
G01 Z-0.0508
G01 X144.741 Y-100.985 F381
G01 X144.741 Y-100.138
G01 X142.984 Y-100.138
G01 X142.984 Y-100.985
G01 Z2.54 F508
G00 X142.984 Y-102.254
G01 Z-0.0508
G01 X144.741 Y-102.254 F381
G01 X144.741 Y-101.408
G01 X142.984 Y-101.408
G01 X142.984 Y-102.254
G01 Z2.54 F508
G00 X142.984 Y-103.523
G01 Z-0.0508
G01 X144.741 Y-103.523 F381
G01 X144.741 Y-102.677
G01 X142.984 Y-102.677
G01 X142.984 Y-103.523
G01 Z2.54 F508
G00 X142.984 Y-104.792
G01 Z-0.0508
G01 X144.741 Y-104.792 F381
G01 X144.741 Y-103.946
G01 X142.984 Y-103.946
G01 X142.984 Y-104.792
G01 Z2.54 F508
G00 X142.984 Y-106.062
G01 Z-0.0508
G01 X144.741 Y-106.062 F381
G01 X144.741 Y-105.215
G01 X142.984 Y-105.215
G01 X142.984 Y-106.062
G01 Z2.54 F508
G00 X144.113 Y-107.331
G01 Z-0.0508
G01 X144.741 Y-107.331 F381
G01 X144.741 Y-106.485
G01 X144.113 Y-106.485

G03 X143.856 Y-106.4132 I-0.2567 J-0.4227
G01 X143.856 Y-106.408
G01 X142.69 Y-106.408
G01 X140.638 Y-104.356
G01 Z2.54 F508
G00 X142.984 Y-109.869
G01 Z-0.0508
G01 X144.741 Y-109.869 F381
G01 X144.741 Y-109.023
G01 X142.984 Y-109.023
G01 X142.984 Y-109.869
G01 Z2.54 F508
G00 X152.279 Y-109.869
G01 Z-0.0508
G01 X154.036 Y-109.869 F381
G01 X154.036 Y-109.023
G01 X152.279 Y-109.023
G01 X152.279 Y-109.869
G01 Z2.54 F508
G00 X152.279 Y-108.6
G01 Z-0.0508
G01 X152.895 Y-108.6 F381

G03 X153.151 Y-108.6714 I0.2561 J0.423
G01 X153.151 Y-108.677
G01 X159.254 Y-108.677
G01 X159.792 Y-108.677

G03 X160.1521 Y-108.524 I0.0001 J0.5
G01 X160.151 Y-108.523
G01 Z2.54 F508
G00 X152.279 Y-107.754
G01 Z-0.0508
G01 X152.895 Y-107.754 F381

G02 X153.151 Y-107.6825 I0.2561 J-0.423
G01 X153.151 Y-107.677
G01 X159.254 Y-107.677
G01 X159.574 Y-107.677
G01 X161.523 Y-105.728
G01 X161.523 Y-105.113
G01 X160.895 Y-105.113
G01 X160.895 Y-103.164
G01 X163.151 Y-103.164
G01 X163.151 Y-103.638
G01 X163.613 Y-103.638
G01 X164.6 Y-102.651
G01 X164.6 Y-101.6
G01 X164.6 Y-99.28
G01 X161.074 Y-95.754
G01 X153.664 Y-95.754

G02 X153.304 Y-95.601 I-0.0001 J0.5001
G01 X153.305 Y-95.6
G01 Z2.54 F508
G00 X152.279 Y-108.6
G01 Z-0.0508
G01 X152.279 Y-107.754 F381
G01 Z2.54 F508
G00 X152.279 Y-107.331
G01 Z-0.0508
G01 X152.895 Y-107.331 F381

G03 X153.151 Y-107.4025 I0.2561 J0.4233
G01 X153.151 Y-107.408
G01 X158.523 Y-107.408

G03 X158.883 Y-107.255 I-0.0001 J0.5003
G01 X158.882 Y-107.254
G01 Z2.54 F508
G00 X152.279 Y-106.485
G01 Z-0.0508
G01 X152.895 Y-106.485 F381

G02 X153.151 Y-106.4135 I0.2561 J-0.4227
G01 X153.151 Y-106.408
G01 X158.305 Y-106.408
G01 X159.523 Y-105.19
G01 X159.523 Y-102.331

G02 X159.6629 Y-101.984 I0.4999 J0.0002
G01 X159.664 Y-101.985
G01 Z2.54 F508
G00 X152.279 Y-107.331
G01 Z-0.0508
G01 X152.279 Y-106.485 F381
G01 Z2.54 F508
G00 X152.279 Y-106.062
G01 Z-0.0508
G01 X154.036 Y-106.062 F381
G01 X154.036 Y-105.215
G01 X152.279 Y-105.215
G01 X152.279 Y-106.062
G01 Z2.54 F508
G00 X152.279 Y-104.792
G01 Z-0.0508
G01 X154.036 Y-104.792 F381
G01 X154.036 Y-103.946
G01 X152.279 Y-103.946
G01 X152.279 Y-104.792
G01 Z2.54 F508
G00 X152.279 Y-103.523
G01 Z-0.0508
G01 X154.036 Y-103.523 F381
G01 X154.036 Y-102.677
G01 X152.279 Y-102.677
G01 X152.279 Y-103.523
G01 Z2.54 F508
G00 X152.279 Y-102.254
G01 Z-0.0508
G01 X154.036 Y-102.254 F381
G01 X154.036 Y-101.408
G01 X152.279 Y-101.408
G01 X152.279 Y-102.254
G01 Z2.54 F508
G00 X152.279 Y-100.985
G01 Z-0.0508
G01 X154.036 Y-100.985 F381
G01 X154.036 Y-100.138
G01 X152.279 Y-100.138
G01 X152.279 Y-100.985
G01 Z2.54 F508
G00 X156.895 Y-101.305
G01 Z-0.0508
G01 X157.523 Y-101.305 F381
G01 X157.523 Y-103.164
G01 X156.895 Y-103.164
G01 X156.895 Y-105.113
G01 X159.151 Y-105.113
G01 X159.151 Y-103.164
G01 X158.523 Y-103.164
G01 X158.523 Y-101.305
G01 X159.151 Y-101.305
G01 X159.151 Y-99.356
G01 X156.92 Y-99.356
G01 X153.946 Y-97.382

G03 X153.664 Y-97.2944 I-0.2821 J-0.4103
G01 X153.664 Y-97.292
G01 X150.074 Y-97.292
G01 X147.818 Y-95.036
G01 X147.818 Y-93.728

G03 X148.4472 Y-92.715 I-0.5002 J1.0126
G01 X148.446 Y-92.715

G03 X146.8185 Y-93.7271 I-1.1282 J-0.0004
G01 X146.818 Y-93.728
G01 X146.818 Y-95.254
G01 X146.818 Y-106.459
G01 X145.6 Y-107.677
G01 X144.074 Y-107.677
G01 X143.984 Y-107.587
G01 Z2.54 F508
G00 X156.895 Y-101.305
G01 Z-0.0508
G01 X156.895 Y-100.536 F381
G01 X153.51 Y-98.292
G01 X149.856 Y-98.292

G02 X149.4962 Y-98.1388 I0.0003 J0.4997
G01 X149.497 Y-98.138
G01 Z2.54 F508
G00 X161.767 Y-101.305
G01 Z-0.0508
G01 X163.151 Y-101.305 F381
G01 X163.151 Y-99.356
G01 X162.305 Y-99.356
G01 X159.113 Y-96.164
G01 Z2.54 F508
G00 X160.895 Y-100.741
G01 Z-0.0508
G01 X160.895 Y-99.382 F381
G01 X158.536 Y-97.023
G01 X152.395 Y-97.023

G02 X152.0349 Y-96.8701 I-0.0003 J0.4999
G01 X152.036 Y-96.869
G01 Z2.54 F508
G00 X162.523 Y-105.113
G01 Z-0.0508
G01 X163.151 Y-105.113 F381
G01 X163.151 Y-104.638
G01 X163.831 Y-104.638

G03 X164.1902 Y-104.4852 I-0.0004 J0.4995
G01 X164.19 Y-104.485
G01 Z2.54 F508
G00 X142.472 Y-107.408
G01 Z-0.0508
G01 X143.856 Y-107.408 F381

G03 X144.1157 Y-107.3355 I0.0003 J0.5003
G01 X144.113 Y-107.331
G01 Z2.54 F508
G00 X147.818 Y-106.677
G01 Z-0.0508
G01 X147.818 Y-96.472 F381
G01 X149.497 Y-98.151
G01 Z2.54 F508
G00 X146.177 Y-108.536
G01 Z-0.0508
G01 X147.677 Y-107.036 F381
G01 Z2.54 F508
G00 X162.523 Y-105.946
G01 Z-0.0508
G01 X162.523 Y-105.113 F381
G01 Z2.54 F508
G00 X160.151 Y-108.536
G01 Z-0.0508
G01 X162.382 Y-106.305 F381
G01 Z2.54 F508
G00 X165.6 Y-101.6
G01 Z-0.0508
G01 X165.6 Y-99.062 F381

G03 X165.4598 Y-98.7142 I-0.5002 J0.0004
G01 X165.459 Y-98.715
G01 Z2.54 F508
G00 X165.6 Y-102.869
G01 Z-0.0508
G01 X165.6 Y-101.6 F381
G01 Z2.54 F508
G00 X164.19 Y-104.497
G01 Z-0.0508
G01 X165.459 Y-103.228 F381
G01 Z2.54 F508
G00 X152.895 Y-93.767
G01 Z-0.0508
G01 X152.895 Y-93.728 F381

G03 X153.5242 Y-92.715 I-0.5003 J1.0126
G01 X153.523 Y-92.715

G03 X151.8954 Y-93.7272 I-1.1283 J-0.0004
G01 X151.895 Y-93.728
G01 X151.895 Y-93.985

G03 X152.0353 Y-94.3318 I0.4997 J0.0004
G01 X152.036 Y-94.331
G01 Z2.54 F508
G00 X161.651 Y-94.895
G01 Z-0.0508
G01 X165.459 Y-98.703 F381
G01 Z2.54 F508
G00 X153.882 Y-94.754
G01 Z-0.0508
G01 X161.292 Y-94.754 F381

G02 X161.6521 Y-94.907 I0.0001 J-0.4999
G01 X161.651 Y-94.908
G01 Z2.54 F508
G00 X152.036 Y-94.344
G01 Z-0.0508
G01 X153.305 Y-95.613 F381
G01 Z2.54 F508
G00 X152.895 Y-93.767
G01 Z-0.0508
G01 X153.882 Y-94.754 F381
G01 Z2.54 F508
G00 X160.523 Y-102.549
G01 Z-0.0508
G01 X161.767 Y-101.305 F381
G01 Z2.54 F508
G00 X159.664 Y-101.972
G01 Z-0.0508
G01 X160.895 Y-100.741 F381
G01 Z2.54 F508
G00 X160.523 Y-105.408
G01 Z-0.0508
G01 X160.523 Y-102.549 F381
G01 Z2.54 F508
G00 X158.882 Y-107.267
G01 Z-0.0508
G01 X160.382 Y-105.767 F381
G01 Z2.54 F508
G00 X150.356 Y-93.767
G01 Z-0.0508
G01 X150.356 Y-93.728 F381

G03 X150.9854 Y-92.715 I-0.4997 J1.0126
G01 X150.984 Y-92.715

G03 X149.3567 Y-93.7265 I-1.1277 J-0.0004
G01 X149.356 Y-93.728
G01 X149.356 Y-93.985

G03 X149.4961 Y-94.3319 I0.5003 J0.0004
G01 X149.497 Y-94.331
G01 Z2.54 F508
G00 X149.497 Y-94.344
G01 Z-0.0508
G01 X152.036 Y-96.882 F381
G01 Z2.54 F508
G00 X150.356 Y-93.767
G01 Z-0.0508
G01 X152.613 Y-96.023 F381
G01 X158.754 Y-96.023

G02 X159.1139 Y-96.1762 I-0.0003 J-0.5001
G01 X159.113 Y-96.177

G01 Z2.54 F508
G00 X142.113 Y-107.254
G01 Z-0.0508
G03 X142.472 Y-107.4062 I0.3586 J0.3463 F381
G01 X142.472 Y-107.408

G01 Z2.54 F508
G00 X147.677 Y-107.023
G01 Z-0.0508
G03 X147.8165 Y-106.677 I-0.3592 J0.346 F381
G01 X147.818 Y-106.677

G01 Z2.54 F508
G00 X162.382 Y-106.292
G01 Z-0.0508
G03 X162.5214 Y-105.946 I-0.3591 J0.3458 F381
G01 X162.523 Y-105.946

G01 Z2.54 F508
G00 X165.459 Y-103.215
G01 Z-0.0508
G03 X165.5983 Y-102.869 I-0.3591 J0.3457 F381
G01 X165.6 Y-102.869

G01 Z2.54 F508
G00 X160.382 Y-105.754
G01 Z-0.0508
G03 X160.5218 Y-105.408 I-0.3591 J0.3463 F381
G01 X160.523 Y-105.408
(... pad touchdown start ...)
G00 Z6.35
G00 X139.7 Y-104.68
G01 Z-0.127 F508
G04 P0.25
G00 Z6.35
G00 X139.7 Y-108.68
G01 Z-0.127
G04 P0.25
G00 Z6.35
G00 X143.851 Y-100.559
G01 Z-0.127
G04 P0.25
G00 Z6.35
G00 X143.851 Y-101.829
G01 Z-0.127
G04 P0.25
G00 Z6.35
G00 X143.851 Y-103.099
G01 Z-0.127
G04 P0.25
G00 Z6.35
G00 X143.851 Y-104.369
G01 Z-0.127
G04 P0.25
G00 Z6.35
G00 X143.851 Y-105.639
G01 Z-0.127
G04 P0.25
G00 Z6.35
G00 X143.851 Y-106.909
G01 Z-0.127
G04 P0.25
G00 Z6.35
G00 X143.851 Y-108.179
G01 Z-0.127
G04 P0.25
G00 Z6.35
G00 X143.851 Y-109.449
G01 Z-0.127
G04 P0.25
G00 Z6.35
G00 X153.151 Y-109.449
G01 Z-0.127
G04 P0.25
G00 Z6.35
G00 X153.151 Y-108.179
G01 Z-0.127
G04 P0.25
G00 Z6.35
G00 X153.151 Y-106.909
G01 Z-0.127
G04 P0.25
G00 Z6.35
G00 X153.151 Y-105.639
G01 Z-0.127
G04 P0.25
G00 Z6.35
G00 X153.151 Y-104.369
G01 Z-0.127
G04 P0.25
G00 Z6.35
G00 X153.151 Y-103.099
G01 Z-0.127
G04 P0.25
G00 Z6.35
G00 X153.151 Y-101.829
G01 Z-0.127
G04 P0.25
G00 Z6.35
G00 X153.151 Y-100.559
G01 Z-0.127
G04 P0.25
G00 Z6.35
G00 X152.4 Y-92.71
G01 Z-0.127
G04 P0.25
G00 Z6.35
G00 X144.78 Y-92.71
G01 Z-0.127
G04 P0.25
G00 Z6.35
G00 X147.32 Y-92.71
G01 Z-0.127
G04 P0.25
G00 Z6.35
G00 X149.86 Y-92.71
G01 Z-0.127
G04 P0.25
G00 Z6.35
G00 X158.02 Y-100.33
G01 Z-0.127
G04 P0.25
G00 Z6.35
G00 X162.02 Y-100.33
G01 Z-0.127
G04 P0.25
G00 Z6.35
G00 X158.02 Y-104.14
G01 Z-0.127
G04 P0.25
G00 Z6.35
G00 X162.02 Y-104.14
G01 Z-0.127
G04 P0.25
G00 Z6.35
(... pad touchdown end ...)
G00 Z6.35
G00 X0 Y0
M05 (Stop spindle)
M02 (Program End)

