(Generated By: Line Grinder Version: 01.04)
(Home Page: http://www.OfItselfSo.com/LineGrinder/LineGrinder.php)
(Generated from file: D:\repo\WindTunnelApparatus\Hardware\I2C\I2C-F_Cu.gbr)
(Date Generated: Wednesday, 18 November 2015 13:10)

(The Line Grinder software is released under the MIT License. There)
(is no warranty or guarantee that the GCode files it produces)
(are without error. You use it, and run its output code entirely)
(at your own risk. In particular: )

(THE LINE GRINDER SOFTWARE, AND THE OUTPUT CODE IT GENERATES, ARE )
(PROVIDED "AS IS", WITHOUT WARRANTY OF ANY KIND, EXPRESS OR )
(IMPLIED, INCLUDING BUT NOT LIMITED TO THE WARRANTIES OF )
(MERCHANTABILITY, FITNESS FOR A PARTICULAR PURPOSE AND )
(NONINFRINGEMENT. IN NO EVENT SHALL THE AUTHORS OR COPYRIGHT )
(HOLDERS BE LIABLE FOR ANY CLAIM, DAMAGES OR OTHER LIABILITY, )
(WHETHER IN AN ACTION OF CONTRACT, TORT OR OTHERWISE, ARISING )
(FROM, OUT OF OR IN CONNECTION WITH THE SOFTWARE OR ITS OUTPUT)
(OR FROM THE USE OR OTHER DEALINGS IN THE SOFTWARE. )

G21 (Use MilliMeters)
G90 (Set Absolute Coordinates)
G17 (XY plane selection)
G00 Z0.25
G00 X0 Y0
M03 (Start spindle)
G04 P1 (Pause to let the spindle start)
G00 X138.647 Y-105.936
G01 Z-0.002 F20
G01 X140.596 Y-105.936 F15
G01 X142.019 Y-107.359
G01 Z0.1 F20
G00 X140.763 Y-104.308
G01 Z-0.002
G01 X140.763 Y-103.423 F15
G01 X140.327 Y-103.423
G01 X140.327 Y-98.064
G01 X144.416 Y-93.961
G01 X146.032 Y-93.961
G01 X146.032 Y-91.449
G01 X143.519 Y-91.449
G01 X143.519 Y-93.064
G01 X139.25 Y-97.346
G01 Z0.1 F20
G00 X138.647 Y-103.423
G01 Z-0.002
G01 X139.07 Y-103.423 F15
G01 X139.07 Y-97.795

G02 X139.2477 Y-97.3568 I0.6285 J0.0002
G01 X139.25 Y-97.359
G01 Z0.1 F20
G00 X138.647 Y-105.936
G01 Z-0.002
G01 X138.647 Y-103.423 F15
G01 Z0.1 F20
G00 X138.647 Y-109.936
G01 Z-0.002
G01 X140.763 Y-109.936 F15
G01 X140.763 Y-109.308
G01 X141.25 Y-109.308

G03 X141.688 Y-109.13 I-0.0003 J0.6286
G01 X141.686 Y-109.128
G01 X142.019 Y-108.808
G01 X143.852 Y-108.808

G03 X144.1485 Y-108.7338 I0.0003 J0.6286
G01 X144.147 Y-108.731
G01 X144.865 Y-108.731
G01 X144.865 Y-107.628
G01 X144.147 Y-107.628

G03 X143.852 Y-107.5542 I-0.2947 J-0.5514
G01 X143.852 Y-107.551
G01 X141.763 Y-107.551

G03 X141.3247 Y-107.7286 I-0.0004 J-0.6284
G01 X141.327 Y-107.731
G01 X140.993 Y-108.051
G01 X140.763 Y-108.051
G01 X140.763 Y-107.423
G01 X139.339 Y-107.423
G01 X137.788 Y-105.872
G01 X137.788 Y-95.526
G01 X142.993 Y-90.538
G01 X146.07 Y-90.538
G01 X146.686 Y-91.09
G01 X146.686 Y-91.615

G03 X146.686 Y-93.795 I0.6278 J-1.09
G01 X146.686 Y-95.256

G03 X146.8634 Y-95.6936 I0.6278 J-0.0003
G01 X146.865 Y-95.692
G01 Z0.1 F20
G00 X138.647 Y-109.936
G01 Z-0.002
G01 X138.647 Y-108.526 F15
G01 X136.711 Y-106.59
G01 Z0.1 F20
G00 X142.852 Y-101.115
G01 Z-0.002
G01 X144.865 Y-101.115 F15
G01 X144.865 Y-100.013
G01 X142.852 Y-100.013
G01 X142.852 Y-101.115
G01 Z0.1 F20
G00 X142.852 Y-102.384
G01 Z-0.002
G01 X144.865 Y-102.384 F15
G01 X144.865 Y-101.282
G01 X142.852 Y-101.282
G01 X142.852 Y-102.384
G01 Z0.1 F20
G00 X142.852 Y-103.654
G01 Z-0.002
G01 X144.865 Y-103.654 F15
G01 X144.865 Y-102.551
G01 X142.852 Y-102.551
G01 X142.852 Y-103.654
G01 Z0.1 F20
G00 X142.852 Y-104.923
G01 Z-0.002
G01 X144.865 Y-104.923 F15
G01 X144.865 Y-103.82
G01 X142.852 Y-103.82
G01 X142.852 Y-104.923
G01 Z0.1 F20
G00 X142.852 Y-106.192
G01 Z-0.002
G01 X144.865 Y-106.192 F15
G01 X144.865 Y-105.09
G01 X142.852 Y-105.09
G01 X142.852 Y-106.192
G01 Z0.1 F20
G00 X144.147 Y-107.461
G01 Z-0.002
G01 X144.865 Y-107.461 F15
G01 X144.865 Y-106.359
G01 X144.147 Y-106.359

G03 X143.852 Y-106.2852 I-0.2947 J-0.5511
G01 X143.852 Y-106.282
G01 X142.737 Y-106.282
G01 X140.763 Y-104.308
G01 Z0.1 F20
G00 X142.852 Y-110
G01 Z-0.002
G01 X144.865 Y-110 F15
G01 X144.865 Y-108.897
G01 X142.852 Y-108.897
G01 X142.852 Y-110
G01 Z0.1 F20
G00 X152.147 Y-110
G01 Z-0.002
G01 X154.16 Y-110 F15
G01 X154.16 Y-108.897
G01 X152.147 Y-108.897
G01 X152.147 Y-110
G01 Z0.1 F20
G00 X152.147 Y-108.731
G01 Z-0.002
G01 X152.852 Y-108.731 F15

G03 X153.147 Y-108.805 I0.2952 J0.5516
G01 X153.147 Y-108.808
G01 X159.25 Y-108.808
G01 X159.788 Y-108.808

G03 X160.2393 Y-108.6172 I0.0002 J0.6286
G01 X160.237 Y-108.615
G01 Z0.1 F20
G00 X152.147 Y-107.628
G01 Z-0.002
G01 X152.852 Y-107.628 F15

G02 X153.147 Y-107.5539 I0.2952 J-0.5514
G01 X153.147 Y-107.551
G01 X159.25 Y-107.551
G01 X159.519 Y-107.551
G01 X161.391 Y-105.679
G01 X161.391 Y-105.243
G01 X160.763 Y-105.243
G01 X160.763 Y-103.038
G01 X163.275 Y-103.038
G01 X163.275 Y-103.513
G01 X163.557 Y-103.513
G01 X164.468 Y-102.602
G01 X164.468 Y-101.602
G01 X164.468 Y-99.333
G01 X161.019 Y-95.884
G01 X153.673 Y-95.884

G02 X153.2224 Y-95.6935 I-0.0002 J0.6277
G01 X153.224 Y-95.692
G01 X151.955 Y-94.41

G02 X151.7782 Y-93.974 I0.4486 J0.4358
G01 X151.775 Y-93.974
G01 X151.775 Y-93.795

G02 X153.6619 Y-92.705 I0.6286 J1.09
G01 X153.66 Y-92.705

G02 X153.0857 Y-93.7601 I-1.2564 J0
G01 X153.083 Y-93.756
G01 Z0.1 F20
G00 X152.147 Y-108.731
G01 Z-0.002
G01 X152.147 Y-107.628 F15
G01 Z0.1 F20
G00 X152.147 Y-107.461
G01 Z-0.002
G01 X152.852 Y-107.461 F15

G03 X153.147 Y-107.5351 I0.2952 J0.5509
G01 X153.147 Y-107.538
G01 X158.519 Y-107.538

G03 X158.9695 Y-107.3475 I0 J0.6279
G01 X158.968 Y-107.346
G01 Z0.1 F20
G00 X152.147 Y-106.359
G01 Z-0.002
G01 X152.852 Y-106.359 F15

G02 X153.147 Y-106.285 I0.2952 J-0.5511
G01 X153.147 Y-106.282
G01 X158.25 Y-106.282
G01 X159.391 Y-105.141
G01 X159.391 Y-102.333

G02 X159.5685 Y-101.8956 I0.628 J-0.0002
G01 X159.57 Y-101.897
G01 Z0.1 F20
G00 X152.147 Y-107.461
G01 Z-0.002
G01 X152.147 Y-106.359 F15
G01 Z0.1 F20
G00 X152.147 Y-106.192
G01 Z-0.002
G01 X154.16 Y-106.192 F15
G01 X154.16 Y-105.09
G01 X152.147 Y-105.09
G01 X152.147 Y-106.192
G01 Z0.1 F20
G00 X152.147 Y-104.923
G01 Z-0.002
G01 X154.16 Y-104.923 F15
G01 X154.16 Y-103.82
G01 X152.147 Y-103.82
G01 X152.147 Y-104.923
G01 Z0.1 F20
G00 X152.147 Y-103.654
G01 Z-0.002
G01 X154.16 Y-103.654 F15
G01 X154.16 Y-102.551
G01 X152.147 Y-102.551
G01 X152.147 Y-103.654
G01 Z0.1 F20
G00 X152.147 Y-102.384
G01 Z-0.002
G01 X154.16 Y-102.384 F15
G01 X154.16 Y-101.282
G01 X152.147 Y-101.282
G01 X152.147 Y-102.384
G01 Z0.1 F20
G00 X152.147 Y-101.115
G01 Z-0.002
G01 X154.16 Y-101.115 F15
G01 X154.16 Y-100.013
G01 X152.147 Y-100.013
G01 X152.147 Y-101.115
G01 Z0.1 F20
G00 X156.763 Y-101.436
G01 Z-0.002
G01 X157.391 Y-101.436 F15
G01 X157.391 Y-103.038
G01 X156.763 Y-103.038
G01 X156.763 Y-105.243
G01 X159.275 Y-105.243
G01 X159.275 Y-103.038
G01 X158.647 Y-103.038
G01 X158.647 Y-101.436
G01 X159.275 Y-101.436
G01 X159.275 Y-99.231
G01 X156.955 Y-99.231
G01 X154.019 Y-97.269

G03 X153.673 Y-97.1652 I-0.3462 J-0.5258
G01 X153.673 Y-97.167
G01 X150.134 Y-97.167
G01 X147.942 Y-94.987
G01 X147.942 Y-93.795

G03 X148.5719 Y-92.705 I-0.6282 J1.09
G01 X148.57 Y-92.705

G03 X147.9411 Y-91.6166 I-1.2562 J0
G01 X147.942 Y-91.615
G01 X147.942 Y-90.808

G03 X147.7246 Y-90.3323 I-0.6282 J0.0004
G01 X147.724 Y-90.333
G01 X146.711 Y-89.436

G03 X146.301 Y-89.282 I-0.41 J-0.4741
G01 X142.75 Y-89.282

G03 X142.3124 Y-89.4593 I-0.0003 J-0.6281
G01 X142.314 Y-89.461
G01 X136.724 Y-94.808

G03 X136.5346 Y-95.256 I0.436 J-0.4483
G01 X136.532 Y-95.256
G01 X136.532 Y-106.141

G03 X136.7095 Y-106.5785 I0.628 J0.0001
G01 X136.711 Y-106.577
G01 Z0.1 F20
G00 X156.763 Y-101.436
G01 Z-0.002
G01 X156.763 Y-100.615 F15
G01 X153.481 Y-98.423
G01 X149.865 Y-98.423

G02 X149.4145 Y-98.2324 I0.0001 J0.6282
G01 X149.416 Y-98.231
G01 Z0.1 F20
G00 X161.814 Y-101.436
G01 Z-0.002
G01 X163.275 Y-101.436 F15
G01 X163.275 Y-99.231
G01 X162.352 Y-99.231
G01 X159.198 Y-96.077
G01 Z0.1 F20
G00 X160.763 Y-100.692
G01 Z-0.002
G01 X160.763 Y-99.436 F15
G01 X158.481 Y-97.154
G01 X152.404 Y-97.154

G02 X151.9526 Y-96.9633 I-0.0004 J0.6285
G01 X151.955 Y-96.961
G01 Z0.1 F20
G00 X162.647 Y-105.243
G01 Z-0.002
G01 X163.275 Y-105.243 F15
G01 X163.275 Y-104.769
G01 X163.827 Y-104.769

G03 X164.2769 Y-104.5789 I-0.0003 J0.6281
G01 X164.275 Y-104.577
G01 Z0.1 F20
G00 X142.468 Y-107.538
G01 Z-0.002
G01 X143.852 Y-107.538 F15

G03 X144.1485 Y-107.4638 I0.0003 J0.6279
G01 X144.147 Y-107.461
G01 Z0.1 F20
G00 X146.865 Y-95.705
G01 Z-0.002
G01 X149.416 Y-98.243 F15
G01 Z0.1 F20
G00 X162.647 Y-105.949
G01 Z-0.002
G01 X162.647 Y-105.243 F15
G01 Z0.1 F20
G00 X160.237 Y-108.628
G01 Z-0.002
G01 X162.468 Y-106.397 F15
G01 Z0.1 F20
G00 X165.724 Y-101.602
G01 Z-0.002
G01 X165.724 Y-99.064 F15

G03 X165.5466 Y-98.6265 I-0.6281 J0
G01 X165.545 Y-98.628
G01 Z0.1 F20
G00 X165.724 Y-102.872
G01 Z-0.002
G01 X165.724 Y-101.602 F15
G01 Z0.1 F20
G00 X164.275 Y-104.59
G01 Z-0.002
G01 X165.545 Y-103.32 F15
G01 Z0.1 F20
G00 X161.737 Y-94.808
G01 Z-0.002
G01 X165.545 Y-98.615 F15
G01 Z0.1 F20
G00 X153.929 Y-94.628
G01 Z-0.002
G01 X161.288 Y-94.628 F15

G02 X161.7387 Y-94.8183 I0.0002 J-0.6283
G01 X161.737 Y-94.82
G01 Z0.1 F20
G00 X153.929 Y-94.628
G01 Z-0.002
G01 X153.083 Y-93.769 F15
G01 Z0.1 F20
G00 X160.647 Y-102.602
G01 Z-0.002
G01 X161.814 Y-101.436 F15
G01 Z0.1 F20
G00 X159.57 Y-101.884
G01 Z-0.002
G01 X160.763 Y-100.692 F15
G01 Z0.1 F20
G00 X160.647 Y-105.41
G01 Z-0.002
G01 X160.647 Y-102.602 F15
G01 Z0.1 F20
G00 X158.968 Y-107.359
G01 Z-0.002
G01 X160.468 Y-105.859 F15
G01 Z0.1 F20
G00 X149.237 Y-93.974
G01 Z-0.002
G01 X149.237 Y-93.795 F15

G02 X151.1231 Y-92.705 I0.6281 J1.09
G01 X151.122 Y-92.705

G02 X150.5478 Y-93.7603 I-1.2569 J0
G01 X150.545 Y-93.756
G01 X152.673 Y-95.897
G01 X158.75 Y-95.897

G02 X159.2005 Y-96.0876 I-0.0003 J-0.6285
G01 X159.198 Y-96.09
G01 Z0.1 F20
G00 X151.955 Y-96.974
G01 Z-0.002
G01 X149.416 Y-94.423 F15

G01 Z0.1 F20
G00 X142.019 Y-107.346
G01 Z-0.002
G03 X142.468 Y-107.5357 I0.4487 J0.4359 F15
G01 X142.468 Y-107.538

G01 Z0.1 F20
G00 X162.468 Y-106.384
G01 Z-0.002
G03 X162.6444 Y-105.949 I-0.449 J0.4354 F15
G01 X162.647 Y-105.949

G01 Z0.1 F20
G00 X165.545 Y-103.308
G01 Z-0.002
G03 X165.722 Y-102.872 I-0.4491 J0.4363 F15
G01 X165.724 Y-102.872

G01 Z0.1 F20
G00 X160.468 Y-105.846
G01 Z-0.002
G03 X160.6448 Y-105.41 I-0.449 J0.4359 F15
G01 X160.647 Y-105.41

G01 Z0.1 F20
G00 X149.237 Y-93.974
G01 Z-0.002
G03 X149.4144 Y-94.4117 I0.6281 J-0.0002 F15
G01 X149.416 Y-94.41
(... pad touchdown start ...)
G00 Z0.25
G00 X139.7 Y-104.68
G01 Z-0.005 F20
G04 P0.25
G00 Z0.25
G00 X139.7 Y-108.68
G01 Z-0.005
G04 P0.25
G00 Z0.25
G00 X143.851 Y-100.559
G01 Z-0.005
G04 P0.25
G00 Z0.25
G00 X143.851 Y-101.829
G01 Z-0.005
G04 P0.25
G00 Z0.25
G00 X143.851 Y-103.099
G01 Z-0.005
G04 P0.25
G00 Z0.25
G00 X143.851 Y-104.369
G01 Z-0.005
G04 P0.25
G00 Z0.25
G00 X143.851 Y-105.639
G01 Z-0.005
G04 P0.25
G00 Z0.25
G00 X143.851 Y-106.909
G01 Z-0.005
G04 P0.25
G00 Z0.25
G00 X143.851 Y-108.179
G01 Z-0.005
G04 P0.25
G00 Z0.25
G00 X143.851 Y-109.449
G01 Z-0.005
G04 P0.25
G00 Z0.25
G00 X153.151 Y-109.449
G01 Z-0.005
G04 P0.25
G00 Z0.25
G00 X153.151 Y-108.179
G01 Z-0.005
G04 P0.25
G00 Z0.25
G00 X153.151 Y-106.909
G01 Z-0.005
G04 P0.25
G00 Z0.25
G00 X153.151 Y-105.639
G01 Z-0.005
G04 P0.25
G00 Z0.25
G00 X153.151 Y-104.369
G01 Z-0.005
G04 P0.25
G00 Z0.25
G00 X153.151 Y-103.099
G01 Z-0.005
G04 P0.25
G00 Z0.25
G00 X153.151 Y-101.829
G01 Z-0.005
G04 P0.25
G00 Z0.25
G00 X153.151 Y-100.559
G01 Z-0.005
G04 P0.25
G00 Z0.25
G00 X152.4 Y-92.71
G01 Z-0.005
G04 P0.25
G00 Z0.25
G00 X144.78 Y-92.71
G01 Z-0.005
G04 P0.25
G00 Z0.25
G00 X147.32 Y-92.71
G01 Z-0.005
G04 P0.25
G00 Z0.25
G00 X149.86 Y-92.71
G01 Z-0.005
G04 P0.25
G00 Z0.25
G00 X158.02 Y-100.33
G01 Z-0.005
G04 P0.25
G00 Z0.25
G00 X162.02 Y-100.33
G01 Z-0.005
G04 P0.25
G00 Z0.25
G00 X158.02 Y-104.14
G01 Z-0.005
G04 P0.25
G00 Z0.25
G00 X162.02 Y-104.14
G01 Z-0.005
G04 P0.25
G00 Z0.25
(... pad touchdown end ...)
G00 Z0.25
G00 X0 Y0
M05 (Stop spindle)
M02 (Program End)

